!! 00000] TT[
!!!OTL: Nong fu yuan
!!!ARE: Asia, China,ÿYunnan
!! Ethnic Group: Han
!! MM, ZHONGGUO MINGE XUAN S.162
!!!SCT: C1295
!!!YEM: Copyright 1995, estate of Helmut Schaffrath.
**kern
*ICvox
*Ivox
*M2/4
*k[b-]
*F:
{8cc
16cc
16a
4dd
=1
8.dd
16a
4g
=2
8a
8dd
8dd
16cc
16a
=3
8g
8g
8f
16d
16f
=4
2g}
=5
{8cc
16a
16g
8f
16f
16g
=6
4.a
8cc
=7
8.a
16cc
8g
8r
=8
8.g
16f
8d
8r}
=9
{8a
8dd
8dd
16cc
16a
=10
2g
=11
4.cc
8f
=12
8.g
16f
8d
8r}
=13
{8.d
16c
8d
8r
=14
8.d
16c
8f
8r
=15
8.d
16c
4d//}
==
!!!AGN: Xiaodiao. Suku
!! Pinyin-Text der ersten Strophe vorhanden!
!!!ONB: ESAC (Essen Associative Code) Database: CHINA
!!!AMT: simple duple
!!!AIN: vox
!!!EED: Helmut Schaffrath
!!!EEV: 1.0
*-
!!!OTL: Chouchou zhenjiao lang moxian
!!!ARE: Asia, China,ÿHubei, Xinchun
!! I, 445
!!!SCT: C1452
!!!YEM: Copyright 1995, estate of Helmut Schaffrath.
**kern
*ICvox
*Ivox
*M6/8
*k[f#c#g#d#]
*E:
{8b
8cc#
8ee
16cc#
16b
4b
=1
8b
8cc#
16cc#
16ee
4.ff#}
=2
{8ff#
16ff#
16ee
8cc#
4.b
=3
4ee
4cc#
4b}
=4
{8b
8b
16cc#
16ee
4.ff#
=5
8ff#
8ee
8cc#
4.b}
=6
{8ff#
8ff#
16ee
16cc#
4.b
=7
8b
8b
16cc#
16ee
4.ff#}
=8
{8ff#
16ff#
16ee
8cc#
4.b
=9
8ff#
8ee
8cc#
4.b}
==
!!!AGN: Shange, Wujuzi
!!!ONB: ESAC (Essen Associative Code) Database: HUANG
!!!AMT: compound duple
!!!AIN: vox
!!!EED: Helmut Schaffrath
!!!EEV: 1.0
*-
